promo/img/logo/bss-logo.svg

<svg width="138" height="52" viewBox="0 0 138 52" fill="none" xmlns="http://www.w3.org/2000/svg">
<path fill-rule="evenodd" clip-rule="evenodd" d="M25.9 0C11.6 0 0 11.6 0 26C0 40.4 11.6 52 25.9 52C40.2 52 51.8 40.4 51.8 26C51.9 11.6 40.3 0 25.9 0Z" fill="#B10920"/>
<path d="M69.6999 22.6C71.9999 22.6 73.5999 21.5 74.6999 20L73.2999 19.2C72.4999 20.3 71.1999 21.1 69.6999 21.1C66.7999 21.1 64.5999 18.8 64.5999 15.7C64.5999 12.5 66.7999 10.3 69.6999 10.3C71.1999 10.3 72.5999 11.1 73.2999 12.2L74.6999 11.4C73.5999 9.90005 71.9999 8.80005 69.6999 8.80005C65.8999 8.80005 62.8999 11.6 62.8999 15.7C62.8999 19.8 65.7999 22.6 69.6999 22.6Z" fill="black"/>
<path d="M78.2002 22.4L83.2002 14.9V22.4H84.7002V12.7H83.3002L78.2002 20.1V12.7H76.7002V22.4H78.2002Z" fill="black"/>
<path d="M91.9001 22.6001C93.6001 22.6001 94.7001 21.9001 95.4001 20.9001L94.4001 20.0001C93.8001 20.9001 92.9001 21.3001 92.0001 21.3001C90.0001 21.3001 88.7001 19.7001 88.7001 17.6001C88.7001 15.5001 90.0001 13.9001 92.0001 13.9001C93.0001 13.9001 93.8001 14.3001 94.4001 15.2001L95.4001 14.3001C94.7001 13.3001 93.6001 12.6001 91.9001 12.6001C89.0001 12.6001 87.1001 14.8001 87.1001 17.6001C87.2001 20.4001 89.1001 22.6001 91.9001 22.6001Z" fill="black"/>
<path d="M100.8 22.4V14H103.6V12.7H96.5V14H99.3V22.4H100.8Z" fill="black"/>
<path d="M109.9 22.5999C111.5 22.5999 112.8 22.0999 113.7 21.0999L113 20.0999C112.2 20.8999 111.1 21.2999 110 21.2999C107.9 21.2999 106.7 19.7999 106.5 17.9999H114.3V17.5999C114.3 14.6999 112.6 12.3999 109.7 12.3999C107 12.3999 105 14.6999 105 17.3999C105 20.4999 107 22.5999 109.9 22.5999ZM112.9 16.8999H106.6C106.7 15.3999 107.7 13.6999 109.7 13.6999C111.9 13.6999 112.8 15.4999 112.9 16.8999Z" fill="black"/>
<path d="M126.5 22.4V12.7H124.5L121.6 19.9L118.7 12.7H116.7V22.4H118.2V14.8L121.4 22.4H121.9L125 14.8V22.4H126.5Z" fill="black"/>
<path d="M137 22.4001V15.8001C137 13.5001 135.3 12.6001 133.3 12.6001C131.7 12.6001 130.5 13.1001 129.5 14.2001L130.2 15.2001C131.1 14.3001 132 13.9001 133.1 13.9001C134.5 13.9001 135.5 14.6001 135.5 15.9001V17.6001C134.7 16.7001 133.6 16.3001 132.3 16.3001C130.7 16.3001 128.9 17.3001 128.9 19.5001C128.9 21.6001 130.6 22.7001 132.3 22.7001C133.6 22.7001 134.7 22.2001 135.5 21.4001V22.5001H137V22.4001ZM132.9 21.5001C131.5 21.5001 130.5 20.6001 130.5 19.4001C130.5 18.2001 131.5 17.3001 132.9 17.3001C134 17.3001 135 17.7001 135.5 18.5001V20.3001C134.9 21.1001 133.9 21.5001 132.9 21.5001Z" fill="black"/>
<path d="M66.0001 43.4001V32.6001H72.5001V30.1001H63.1001V43.4001H66.0001Z" fill="black"/>
<path d="M71.6 43.6C74 43.6 75.2 42.0001 75.6 38.7001L75.9 36H78.9V43.4001H81.4V33.8H73.6L73 38.5C72.7 40.8 72.2 41.6 71.5 41.6V43.6H71.6Z" fill="black"/>
<path d="M92.3 43.4001V37.2001C92.3 34.4001 90.3 33.6001 88.1 33.6001C86.6 33.6001 85.1 34.1001 83.9 35.1001L84.9 36.8001C85.7 36.0001 86.7 35.7001 87.7 35.7001C89 35.7001 89.8 36.3001 89.8 37.3001V38.6001C89.2 37.8001 88 37.4001 86.8 37.4001C85.3 37.4001 83.5 38.3001 83.5 40.5001C83.5 42.7001 85.3 43.7001 86.8 43.7001C88.1 43.7001 89.2 43.2001 89.8 42.5001V43.5001H92.3V43.4001ZM87.7 41.9001C86.7 41.9001 85.9 41.4001 85.9 40.5001C85.9 39.6001 86.7 39.0001 87.7 39.0001C88.5 39.0001 89.3 39.3001 89.7 39.8001V41.0001C89.3 41.6001 88.5 41.9001 87.7 41.9001Z" fill="black"/>
<path d="M101 43.4001C102.9 43.4001 104 42.2 104 40.8C104 39.6 103.2 38.7 102.2 38.5C103.1 38.2 103.8 37.5 103.8 36.3C103.8 35 102.8 33.8 100.9 33.8H94.7998V43.4001H101ZM100.4 41.3H97.2998V39.5H100.4C101 39.5 101.4 39.9001 101.4 40.4001C101.4 41.0001 101 41.3 100.4 41.3ZM100.3 37.4001H97.2998V35.8H100.3C100.9 35.8 101.2 36.1 101.2 36.6C101.2 37.1 100.9 37.4001 100.3 37.4001Z" fill="black"/>
<path d="M110.9 41.4001C109.3 41.4001 108.5 40.1001 108.5 38.6001C108.5 37.1001 109.4 35.9001 110.9 35.9001C112.5 35.9001 113.4 37.2001 113.4 38.6001C113.3 40.1001 112.4 41.4001 110.9 41.4001ZM110.9 43.6001C114.1 43.6001 116 41.2001 116 38.5001C116 35.8001 114.2 33.5001 111.5 33.5001C110.2 33.5001 109 34.1001 108.2 35.1001C108.5 34.0001 109.4 33.0001 111.7 32.7001C113.3 32.5001 115.7 32.0001 115.7 30.1001H113.1C113.1 30.4001 112.5 30.7001 110.9 30.9001C107.6 31.3001 105.9 33.4001 105.9 38.1001C105.8 41.2001 107.7 43.6001 110.9 43.6001Z" fill="black"/>
<path d="M117.5 47.0999C117.8 47.1999 118.5 47.2 118.8 47.2C120.4 47.2 121.7 46.7 122.4 44.9L126.9 33.7H124.2L121.7 40.4L119.2 33.7H116.5L120.4 43.5L120 44.2999C119.8 44.7999 119.3 45 118.7 45C118.5 45 118.1 44.9 117.9 44.7999L117.5 47.0999Z" fill="black"/>
<path d="M137.5 43.4001L134.1 38.4001L137.3 33.8H134.5L132.5 36.7001L130.5 33.8H127.7L130.9 38.4001L127.5 43.4001H130.3L132.5 40.1L134.7 43.4001H137.5Z" fill="black"/>
<path fill-rule="evenodd" clip-rule="evenodd" d="M18.8999 20.8L17.1999 34.3L15.5999 20.7L4.3999 19.1L15.4999 17.4L17.1999 5.5L18.9999 17.2L37.4999 19.1L18.8999 20.8Z" fill="white"/>
</svg>

<svg viewBox="0 0 138 52" fill="none" xmlns="http://www.w3.org/2000/svg"><path fill-rule="evenodd" clip-rule="evenodd" d="M25.9 0C11.6 0 0 11.6 0 26s11.6 26 25.9 26c14.3 0 25.9-11.6 25.9-26 .1-14.4-11.5-26-25.9-26z" fill="#B10920"/><path d="M69.7 22.6c2.3 0 3.9-1.1 5-2.6l-1.4-.8c-.8 1.1-2.1 1.9-3.6 1.9-2.9 0-5.1-2.3-5.1-5.4 0-3.2 2.2-5.4 5.1-5.4 1.5 0 2.9.8 3.6 1.9l1.4-.8c-1.1-1.5-2.7-2.6-5-2.6-3.8 0-6.8 2.8-6.8 6.9 0 4.1 2.9 6.9 6.8 6.9zm8.5-.2l5-7.5v7.5h1.5v-9.7h-1.4l-5.1 7.4v-7.4h-1.5v9.7h1.5zm13.7.2c1.7 0 2.8-.7 3.5-1.7l-1-.9c-.6.9-1.5 1.3-2.4 1.3-2 0-3.3-1.6-3.3-3.7s1.3-3.7 3.3-3.7c1 0 1.8.4 2.4 1.3l1-.9c-.7-1-1.8-1.7-3.5-1.7-2.9 0-4.8 2.2-4.8 5 .1 2.8 2 5 4.8 5zm8.9-.2V14h2.8v-1.3h-7.1V14h2.8v8.4h1.5zm9.1.2c1.6 0 2.9-.5 3.8-1.5l-.7-1c-.8.8-1.9 1.2-3 1.2-2.1 0-3.3-1.5-3.5-3.3h7.8v-.4c0-2.9-1.7-5.2-4.6-5.2-2.7 0-4.7 2.3-4.7 5 0 3.1 2 5.2 4.9 5.2zm3-5.7h-6.3c.1-1.5 1.1-3.2 3.1-3.2 2.2 0 3.1 1.8 3.2 3.2zm13.6 5.5v-9.7h-2l-2.9 7.2-2.9-7.2h-2v9.7h1.5v-7.6l3.2 7.6h.5l3.1-7.6v7.6h1.5zm10.5 0v-6.6c0-2.3-1.7-3.2-3.7-3.2-1.6 0-2.8.5-3.8 1.6l.7 1c.9-.9 1.8-1.3 2.9-1.3 1.4 0 2.4.7 2.4 2v1.7c-.8-.9-1.9-1.3-3.2-1.3-1.6 0-3.4 1-3.4 3.2 0 2.1 1.7 3.2 3.4 3.2 1.3 0 2.4-.5 3.2-1.3v1.1h1.5v-.1zm-4.1-.9c-1.4 0-2.4-.9-2.4-2.1 0-1.2 1-2.1 2.4-2.1 1.1 0 2.1.4 2.6 1.2v1.8c-.6.8-1.6 1.2-2.6 1.2zM66 43.4V32.6h6.5v-2.5h-9.4v13.3H66zm5.6.2c2.4 0 3.6-1.6 4-4.9l.3-2.7h3v7.4h2.5v-9.6h-7.8l-.6 4.7c-.3 2.3-.8 3.1-1.5 3.1v2h.1zm20.7-.2v-6.2c0-2.8-2-3.6-4.2-3.6-1.5 0-3 .5-4.2 1.5l1 1.7c.8-.8 1.8-1.1 2.8-1.1 1.3 0 2.1.6 2.1 1.6v1.3c-.6-.8-1.8-1.2-3-1.2-1.5 0-3.3.9-3.3 3.1s1.8 3.2 3.3 3.2c1.3 0 2.4-.5 3-1.2v1h2.5v-.1zm-4.6-1.5c-1 0-1.8-.5-1.8-1.4 0-.9.8-1.5 1.8-1.5.8 0 1.6.3 2 .8V41c-.4.6-1.2.9-2 .9zm13.3 1.5c1.9 0 3-1.2 3-2.6 0-1.2-.8-2.1-1.8-2.3.9-.3 1.6-1 1.6-2.2 0-1.3-1-2.5-2.9-2.5h-6.1v9.6h6.2zm-.6-2.1h-3.1v-1.8h3.1c.6 0 1 .4 1 .9 0 .6-.4.9-1 .9zm-.1-3.9h-3v-1.6h3c.6 0 .9.3.9.8s-.3.8-.9.8zm10.6 4c-1.6 0-2.4-1.3-2.4-2.8 0-1.5.9-2.7 2.4-2.7 1.6 0 2.5 1.3 2.5 2.7-.1 1.5-1 2.8-2.5 2.8zm0 2.2c3.2 0 5.1-2.4 5.1-5.1 0-2.7-1.8-5-4.5-5-1.3 0-2.5.6-3.3 1.6.3-1.1 1.2-2.1 3.5-2.4 1.6-.2 4-.7 4-2.6h-2.6c0 .3-.6.6-2.2.8-3.3.4-5 2.5-5 7.2-.1 3.1 1.8 5.5 5 5.5zm6.6 3.5c.3.1 1 .1 1.3.1 1.6 0 2.9-.5 3.6-2.3l4.5-11.2h-2.7l-2.5 6.7-2.5-6.7h-2.7l3.9 9.8-.4.8c-.2.5-.7.7-1.3.7-.2 0-.6-.1-.8-.2l-.4 2.3zm20-3.7l-3.4-5 3.2-4.6h-2.8l-2 2.9-2-2.9h-2.8l3.2 4.6-3.4 5h2.8l2.2-3.3 2.2 3.3h2.8z" fill="#000"/><path fill-rule="evenodd" clip-rule="evenodd" d="M18.9 20.8l-1.7 13.5-1.6-13.6-11.2-1.6 11.1-1.7 1.7-11.9L19 17.2l18.5 1.9-18.6 1.7z" fill="#fff"/></svg>
